Numix-GalliumOS/16/actions/stock_insert-table.svg

<svg xmlns="http://www.w3.org/2000/svg" viewBox="0 0 16 16">
 <path d="m 1 2 l 0 1 l 0 3 l 0 1 l 0 3 l 0 1 l 0 3 l 0 1 l 8 0 l 1 0 l 4 0 l 0 -1 l 0 -12 l -4 0 l -1 0 l -8 0 z m 1 1 l 3 0 l 0 3 l -3 0 l 0 -3 z m 4 0 l 3 0 l 0 3 l -3 0 l 0 -3 z m 4 0 l 3 0 l 0 3 l -3 0 l 0 -3 z m -8 4 l 3 0 l 0 3 l -3 0 l 0 -3 z m 4 0 l 3 0 l 0 3 l -3 0 l 0 -3 z m 4 0 l 3 0 l 0 3 l -3 0 l 0 -3 z m -8 4 l 3 0 l 0 3 l -3 0 l 0 -3 z m 4 0 l 3 0 l 0 3 l -3 0 l 0 -3 z m 4 0 l 3 0 l 0 3 l -3 0 l 0 -3 z" style="fill:#888"/>
</svg>

<?xml version="1.0" encoding="UTF-8" standalone="no"?>
<svg
   xmlns:dc="http://purl.org/dc/elements/1.1/"
   xmlns:cc="http://creativecommons.org/ns#"
   xmlns:rdf="http://www.w3.org/1999/02/22-rdf-syntax-ns#"
   xmlns:svg="http://www.w3.org/2000/svg"
   xmlns="http://www.w3.org/2000/svg"
   xmlns:sodipodi="http://sodipodi.sourceforge.net/DTD/sodipodi-0.dtd"
   xmlns:inkscape="http://www.inkscape.org/namespaces/inkscape"
   width="16"
   height="16"
   viewBox="0 0 16 16"
   id="svg2"
   version="1.1"
   inkscape:version="0.91 r13725"
   sodipodi:docname="stock_tabale.svg">
  <metadata
     id="metadata18">
    <rdf:RDF>
      <cc:Work
         rdf:about="">
        <dc:format>image/svg+xml</dc:format>
        <dc:type
           rdf:resource="http://purl.org/dc/dcmitype/StillImage" />
      </cc:Work>
    </rdf:RDF>
  </metadata>
  <defs
     id="defs16" />
  <sodipodi:namedview
     pagecolor="#ffffff"
     bordercolor="#666666"
     borderopacity="1"
     objecttolerance="10"
     gridtolerance="10"
     guidetolerance="10"
     inkscape:pageopacity="0"
     inkscape:pageshadow="2"
     inkscape:window-width="1280"
     inkscape:window-height="998"
     id="namedview14"
     showgrid="true"
     inkscape:zoom="45.254834"
     inkscape:cx="7.7758008"
     inkscape:cy="7.1604894"
     inkscape:window-x="0"
     inkscape:window-y="0"
     inkscape:window-maximized="1"
     inkscape:current-layer="svg2"
     inkscape:object-nodes="true">
    <inkscape:grid
       type="xygrid"
       id="grid4146" />
  </sodipodi:namedview>
  <path
     style="fill:#888888"
     d="M 1 2 L 1 3 L 1 6 L 1 7 L 1 10 L 1 11 L 1 14 L 1 15 L 9 15 L 10 15 L 14 15 L 14 14 L 14 2 L 10 2 L 9 2 L 1 2 z M 2 3 L 5 3 L 5 6 L 2 6 L 2 3 z M 6 3 L 9 3 L 9 6 L 6 6 L 6 3 z M 10 3 L 13 3 L 13 6 L 10 6 L 10 3 z M 2 7 L 5 7 L 5 10 L 2 10 L 2 7 z M 6 7 L 9 7 L 9 10 L 6 10 L 6 7 z M 10 7 L 13 7 L 13 10 L 10 10 L 10 7 z M 2 11 L 5 11 L 5 14 L 2 14 L 2 11 z M 6 11 L 9 11 L 9 14 L 6 14 L 6 11 z M 10 11 L 13 11 L 13 14 L 10 14 L 10 11 z "
     id="path6" />
</svg>
